!!!!SEGMENT: pl-wumfc--r256_paderewski-ignacy-jan--romance-op-7.krn
!!!cenid: 18xx:3148
!!!COM: Paderewski, Ignacy Jan
!!!COM-rismid: pe30029943
!!!CDT: 1860/11/18-1941/06/29
!!!CNT: Polish
!!!OTL: Romance op. 7
!!!PDT:
!!!AGN:
!!!SMS-siglum: PL-Wumfc
!!!SMS-shelfmark: R256
!!!SMS-shelfwork: W
!!!SMS-variant:
!!!SMS-altvar:
!!!NIFC-rismid: 1001156333
!!!URL-scan: http://repozytorium.nifc.pl/skany/pl-wumfc--r256
!!!ONB-nifc: UWAGA: obsada vl, piano
!!!key: A
!!!OMD: Andantino Cantabile.
**kern	**kern	**dynam	**kern	**dynam
*part3	*part2	*part2	*part1	*part1
*staff3	*staff2	*	*staff1	*
*I"Piano	*I"Piano	*	*I"Violino	*
*Ipiano	*Ipiano	*	*Ivioln	*
*ICklav	*ICklav	*	*ICstr	*
*IGacmp	*IGacmp	*	*IGsolo	*
*clefF4	*clefG2	*	*clefG2	*
*k[f#c#g#]	*k[f#c#g#]	*	*k[f#c#g#]	*
*A:	*A:	*	*A:	*
*M6/8	*M6/8	*	*M6/8	*
=1	=1	=1	=1	=1
*8ba	*	*	*	*
!	!	!LO:DY:t=piano.	!	!
4.EE 4.EEE\	4.e 4.E/	p	2.r	.
4.EE 4.EEE\	4.e 4.E/	.	.	.
=2	=2	=2	=2	=2
*^	*^	*	*	*
<8ryy	2.EE 2.EEE\	8r	2.e 2.E/	.	2.r	.
(<8d>L 8A>\	.	(8ccc#L 8ff#/	.	.	.	.
8c#> 8F#>\	.	8aa 8dd/	.	.	.	.
8A> 8D>\	.	8ff# 8cc#/	.	.	.	.
8A> 8F#> 8BB>\	.	[8dd/	.	.	.	.
8G#>J 8E> 8BB>\)	.	8dd/J])	.	.	.	.
*	*	*v	*v	*	*	*
=3	=3	=3	=3	=3	=3
8r	2.EE 2.EEE\	8r	>	4r	.
*	*X8ba	*	*	*	*
(<8dL 8A/	.	(>8cc#L 8f#/	.	.	.
!	!	!LO:TX:a:t=riten.	!	!	!
8c# 8F#/	.	8a 8d/	.	8r	.
8A 8D/	.	8f# 8c#/	]	8r	.
8F# [<8BB/	.	8e 8A/	.	[4e/	.
8EJ 8BB/])	.	8dJ 8G#/)	.	.	.
*v	*v	*	*	*	*
=4	=4	=4	=4	=4
!	!	!	!	!LO:DY:a:t=m.f.
4.AA\	4.c#< 4.A< 4.E</	.	8e/L]	mf
!	!	!LO:DY:a=2:t=mf.	!	!
.	.	mf	(8cc#/	.
.	.	.	8b/J	.
4.C#\	4.e< 4.A< 4.E</	.	8g#/L	.
.	.	.	(8qb/	.
.	.	.	8a/)	.
.	.	.	[8e/J)	.
=5	=5	=5	=5	=5
4.D\	8r	.	8e/]	.
.	(<8A<L 8F#</	.	([4f#/	<
.	8f#<J 8d< 8A</)	.	.	.
4.C#\	8r	.	8f#/L]	.
.	8f#L 8d 8A/	.	8g#/	.
.	8aJ 8f# 8d/	.	8a/J)	[[
!!LO:LB:g=original
=6	=6	=6	=6	=6
4.BB\	8r<	.	(4b~\	<
.	8d<L 8B< 8F#</	.	.	.
.	8f#<J 8d< 8B</	.	4cc#~\	.
4.AA\	8r	.	.	.
.	8f#L 8d 8B/	.	4dd~\	[
.	8bJ 8f# 8d/	.	.	.
=7	=7	=7	=7	=7
4.GG#\	8r	.	8ee#X\)	.
!	!	!LO:HP:a	!	!
.	8g#L 8f# 8d/	<	([4ff#\	.
.	8a/J	.	.	.
4.EE\	8a#XL 8g# 8d/	.	4ff#\]	.
.	8b [8g# [8d/	[	.	.
.	8b#XJ 8g#] 8d/]	.	8een\)	.
=8	=8	=8	=8	=8
4.AA\	8r	.	(4ee\	.
.	(8cc#L 8a 8c#/	.	.	.
.	8aJ 8e 8c#/)	.	8aa\)	.
4.BB\	8r	.	(8gg#\L	.
.	8ddL 8a/	.	8dd\	.
.	8d/J	.	8ff#\J)	.
=9	=9	=9	=9	=9
4BB\	8r	.	(4ee\	.
.	8f#L 8d 8A/	.	.	.
8EE\	8eJ 8d 8G#/	.	8b/)	.
4.AA\	8r	.	4.cc#/	.
.	8eL 8c# 8A/	.	.	.
.	8aJ 8e 8c#/	.	.	.
=10	=10	=10	=10	=10
*	*	*	*^	*
4.EE#X\	8r	.	4cc#	(8cc#\L	.
.	8c#<L 8A</	.	.	8ee\	.
.	8aJ 8c#/	.	2ryy	8dd\J	.
4.FF#\	8r	.	.	8cc#/L	.
.	(8c#L 8A/	.	.	8f#/	.
.	8eJ 8c#/)	.	.	8a/J)	.
*	*	*	*v	*v	*
!!LO:LB:g=original
=11	=11	=11	=11	=11
4.BB\	8r	.	(8g#/L	.
.	.	.	8qb/	.
.	8c#L 8A/	.	8a/	.
.	8f#J 8d#X/	.	8f#/J)	.
.	.	.	8qf#/	.
4.EE\	8r	.	(4b/	.
.	8eL 8dn 8G#/	.	.	.
.	8bJ 8e 8d/	.	8e/)	.
=12	=12	=12	=12	=12
!	!	!	!	!LO:DY:a:t=f.
4.A 4.E 4.AA\	4.cc# 4.a 4.e 4.c#/	.	(8e/L	f
.	.	.	8cc#/	.
.	.	.	8b/J	.
4.c# 4.A 4.C#\	4.ee 4.a 4.e/	.	8g#/L	.
.	.	.	(8qb/	.
.	.	.	8a/)	.
.	.	.	[8e/J)	.
=13	=13	=13	=13	=13
4.D\	(8eeL 8a 8e/	.	8e/]	.
.	8dd 8a 8d/	.	([4f#/	.
.	8f#/J)	.	.	.
4.C#\	8r	.	8f#/L]	.
.	8f#L 8d 8A/	.	8g#/	.
.	8aJ 8f# 8d/	.	8a/J)	.
=14	=14	=14	=14	=14
4.BB\	8r<	.	(4b~\	.
.	(8f#L 8d 8B/	.	.	.
.	8bJ 8f# 8d/)	.	4cc#~\	.
4.AA\	8r	.	.	.
.	(8bL 8f# 8d/	.	4dd~\)	.
.	8ddJ 8b 8f#/)	.	.	.
=15	=15	=15	=15	=15
4GG#\	8dL 8B/	.	(8ddd\L	.
.	8b 8d 8B/	.	8bb\	.
8FF#\	8aJ 8d 8A/	.	8aa\J	.
4EE\	8g#L 8e 8B/	.	4gg#\	.
.	8F#</	.	.	.
8DD\	8f#J 8B< 8G#</	.	8ff#\)	.
!!LO:LB:g=original
=16	=16	=16	=16	=16
8CC#\	8e 8c# 8A/	.	(8ee\L	.
4c# 4A 4C#\	4ee 4a 4e/	.	8bb\	.
.	.	.	8aa\J	.
8B 8BB\	4.dd 4.a 4.d/	.	8ff##X\L	.
4BB 4BBB\	.	.	8gg#\	.
.	.	.	8ff#X\J)	.
=17	=17	=17	=17	=17
4.EE\	(8ddL 8g# 8d/	.	(4ee\	.
.	8f#/	.	.	.
.	8fn/J)	.	8b\	.
(8AL 8AA\	4.cc# 4.e 4.c#/	.	4.cc#\)	.
8E\	.	.	.	.
8C#\J)	.	.	.	.
=18	=18	=18	=18	=18
8C# 8EE#X\	8r	.	(8cc#\L	<
4E#X\	[>4cc# [>4a [<4c#/	.	8ee\	.
.	.	.	8dd\J	.
8C# 8FF#\	8cc#] 8a] 8c#/]	.	8b#X\L	[
4D#X\	4c#< 4A< 4F#</	.	8cc#\	.
.	.	.	8a\J)	.
=19	=19	=19	=19	=19
!	!	!	!	!LO:HP:a
4.GG#\	(8G#<L 8E</	.	(4g#/	>
.	8e< 8G#</	.	.	.
.	8B#X<J 8G#< 8F#</)	.	8d/)	.
(>8CC#\L	4.c#< 4.G#< 4.E</	.	4.e/	]]
8GG#\	.	.	.	.
8C#\J)	.	.	.	.
.	.	.	(8qqe/	.
=20	=20	=20	=20	=20
2.BB\	2.d< 2.B< 2.F#</	.	(8f#/L)	.
.	.	.	8g#/	<
.	.	.	8a/	.
.	.	.	8a#X/	.
.	.	.	8b/	.
.	.	.	8cc#/J)	[
!!LO:PB:g=original
=21	=21	=21	=21	=21
*^	*	*	*	*
!	!	!	!LO:HP:a	!	!
(8F#/L	2.AA\	4.d 4.B/	<	([4.dd\	.
8G#/	.	.	.	.	.
8A/	.	.	.	.	.
8A#X/	.	4.f# 4.d/	.	4dd\]	.
8B/	.	.	.	.	.
8c#/J)	.	.	[	8cc#\)	.
*v	*v	*	*	*	*
=22	=22	=22	=22	=22
4.GG#\	4.dd 4.b 4.d/	.	(8b\L	<
.	.	.	8cc#\	.
.	.	.	8dd\J	.
.	.	.	8qdd/	.
4.FF#\	4.dd 4.a 4.d/	.	8aa\L	.
.	.	.	8gg#\	[
.	.	.	8ff#\J)	.
=23	=23	=23	=23	=23
*^	*	*	*	*
4r	2.EE\	8r	.	([4.bb\	.
!	!	!	!LO:HP:a	!	!
.	.	(8eL 8d 8G#/	<	.	>
8r	.	8f#J 8d 8A/	.	.	.
4.E/	.	8g#L 8d 8B/	.	4bb\]	.
.	.	8a 8e 8c#/	.	.	.
.	.	8bJ 8g# 8d)/	[	8ee\)	]
*v	*v	*	*	*	*
=24	=24	=24	=24	=24
2.AA\	2.cc# 2.a 2.c#/	.	(8ee\L	.
.	.	.	8ff#\	<
.	.	.	8gg#\	.
.	.	.	8aa\	.
.	.	.	8bb\	.
.	.	.	8bb#X\J	[
=25	=25	=25	=25	=25
*^	*	*	*	*
4r	2.AA\	(8eeL 8cc# 8a 8e/	.	2.ccc#\)	f
.	.	8ff# 8f#/	<	.	.
8r	.	8gg#J 8g#/	.	.	.
4.e 4.c#\	.	8aaL 8a/	.	.	.
.	.	8bb 8b/	.	.	.
.	.	8bb#XJ 8b#X/)	[	.	.
*v	*v	*	*	*	*
!!LO:LB:g=original
=26	=26	=26	=26	=26
4.A 4.FF#\	4.ccc# 4.aa 4.ee 4.cc#/	.	(8ccc#\L	.
.	.	.	8bb#X\	.
.	.	.	8ccc#\J	f
4.c# 4.A 4.F#\	4.ee 4.cc# 4.a 4.e/	.	8aa\L	.
.	.	.	8gg#\	.
.	.	.	8ff#\J)	.
=27	=27	=27	=27	=27
4.F# 4.BB\	4.aa 4.dd#X 4.cc# 4.a/	.	(8ccc#\L	.
.	.	.	8bb#X\	.
.	.	.	8ccc#\J	.
4.BBB\	4.dd# 4.cc# 4.a 4.d#X/	.	8aa\L	.
.	.	.	8gg#\	.
.	.	.	8ff#\J)	.
=28	=28	=28	=28	=28
4.dn 4.BB\	4.ff# 4.a 4.f#/	.	(8ff#\L	.
.	.	.	8ee#X\	.
.	.	.	8ff#\J	.
4.BBB\	4.b 4.a 4.dn/	.	8dd\L	.
.	.	.	8cc#\	.
.	.	.	8b\J)	.
=29	=29	=29	=29	=29
4.fn 4.B\	4.aa 4.dd 4.a/	.	(8ffn\L	.
.	.	.	8cc#\	.
.	.	.	8dd\J)	.
4.EE\	8e<L 8d< 8G#< 8E</	.	4.ee\	<
.	8B< 8A< 8F#</	.	.	.
.	8e<J 8d< 8G#< 8E</	.	.	.
=30	=30	=30	=30	=30
4.AA 4.AAA\	8r<	.	8ee\L	[
!	!	!	!LO:TX:b:t=con pas-ſione\nstringendo:dur11e:ext=cd:problem:text with extention lines	!
.	8c#<L 8A< 8E</	.	8ccc#\	.
.	8e<J 8c#< 8A</	.	8bb\J	.
4.C# 4.CC#\	8r<	.	8gg#\L	.
.	.	.	(8qbb/	.
.	8e<L 8c#< 8A</	.	8aa\)	.
.	8aJ 8e 8c#/	.	8ee\J	.
!!LO:LB:g=original
=31	=31	=31	=31	=31
4.D 4.DD\	8r	.	8ee#X\	.
.	8d<L 8A< 8F#</	.	([4ff#\	.
.	8f#<J 8d< 8A</	.	.	.
4.C# 4.CC#\	8r	.	8ff#\L]	.
.	8e<L 8A#X< 8F#</	.	8gg#\	.
.	8f#<J 8e< 8A#</	.	8aa#X\J)	.
=32	=32	=32	=32	=32
4.BB 4.BBB\	8r	.	(8bb\L	.
.	8d<L 8B< 8F#</	.	8ddd\	.
.	8f#<J 8d< 8B</	.	8ccc#\J	.
4.AA\	8r<	.	8aa#X\L	.
.	.	.	(8qccc#/	.
.	8f#L 8d 8B/	.	8bb\)	.
.	8bJ 8f# 8d/	.	8ff#\J)	.
=33	=33	=33	=33	=33
4GG#\	8d<L 8B</	.	(4gg#\	<
.	8b 8B/	.	.	.
8F# 8FF#\	8aJ 8A/	.	8aa\	.
4E 4EE\	8g#L 8e 8G#/	.	8bb\L	.
.	(<8qb/	.	.	.
!	!LO:S:s=1:note:problem:note-level slur	!	!	!
.	8a) 8A/	.	8ccc#\	.
8D 8DD\	8f#J 8B 8G#< 8F#</	.	8ddd\J)	.
=34	=34	=34	=34	=34
*	*^	*	*	*
*8ba	*	*	*	*	*
4.CCC#\	8r	4.ryy	.	4.eee\	[
!	!	!	!	!	!LO:HP:t=poco crescendo
.	8c#<L 8A< 8E</	.	.	.	<
.	8e<J 8c#< 8A</	.	.	.	.
!	!LO:TX:i:t=pesanto	!	!	!	!
4.CCC#\	8bL 8d/	8B<L/	.	4.eee#Xt\	.
.	8a 8c#/	8A</	.	.	.
.	8g#J 8B/	8G#<J/	.	.	.
.	.	.	.	16qqddd##X\LL	.
.	.	.	.	16qqeee#\JJ	.
*	*v	*v	*	*	*
=35	=35	=35	=35	=35
4.DDD\	8f#L 8A< 8F#</	.	(4ggg#\	.
.	8A< 8F#</	.	.	.
.	8aJ 8A^>/	.	8fff#\)	.
!	!	!	!LO:TUP:a	!
4.DDD#X\	8r	.	(32%3eee#X\L	.
.	.	.	32%3fff#\	.
.	8c#<L 8A< 8F#</	.	.	.
.	.	.	32%3bbb\	.
.	8aJ 8A<^>/	.	.	.
.	.	.	32%3aaa\J)	.
!!LO:LB:g=original
=36	=36	=36	=36	=36
*	*	*	*8va	*
2.EEE\	8r	.	[4.cccc#\	.
*X8ba	*	*	*	*
!	!	!LO:DY:a	!	!
.	8c#<L 8A< 8E</	ff	.	fff
.	8e<J 8c#< 8A</	.	.	.
.	8aL 8e 8c#/	.	16cccc#\LL]	.
.	.	.	16aaa\	.
.	8cc# 8a 8e/	.	16eee\	.
.	.	.	16ccc#\	.
.	8eeJ 8cc# 8a/	.	16aa\	.
.	.	.	16bb\JJ	.
*	*	*	*X8va	*
=37	=37	=37	=37	=37
*	*^	*	*	*
(16d#X\LL	4.aa 4.cc# 4.a/	4.ryy	.	(4.ccc#\	.
16e\	.	.	.	.	.
16f#\	.	.	.	.	.
16e\	.	.	.	.	.
16c#\	.	.	.	.	.
16A\JJ)	.	.	.	.	.
4.cn 4.E-X\	(16ffn/LL	4.a\	.	4.cccn\)	.
.	16ggn/	.	.	.	.
.	16aa/	.	.	.	.
.	16ff/	.	.	.	.
.	16ccn/	.	.	.	.
.	16a/JJ)	.	.	.	.
*	*v	*v	*	*	*
=38	=38	=38	=38	=38
*8ba	*	*	*	*
2.EEE\	8r	.	([4.ccc#X\	.
*X8ba	*	*	*	*
.	8eL 8c# 8A/	.	.	.
.	8aJ 8e 8c#/	.	.	.
.	8cc#L 8a 8e/	.	16ccc#\LL]	.
.	.	.	16aa\	.
.	8ee 8cc# 8a/	.	16ee\	.
.	.	.	16cc#\	.
.	8ccc#J 8ee 8cc#/	.	16a\	.
.	.	.	16b\JJ)	.
=39	=39	=39	=39	=39
*^	*^	*	*	*
*	*	*	*	*	*Xbrackettup	*
!	!	!	!	!	!LO:TUP:a	!
!	!	!	!	!	!LO:N:vis=8%3	!
4.c#/	4.c# 4.A 4.E\	4.aa/	(>16dd#X\LL	.	(16%3b#X\	.
!	!	!	!LO:N:vis=8	!	!	!
.	.	.	16r	.	.	.
.	.	.	16ff#\	.	.	.
!	!	!	!	!	!LO:N:vis=8%3	!
.	.	.	16ee\	.	16%3cc#\	.
.	.	.	16cc#\	.	.	.
.	.	.	16a\JJ)	.	.	.
!	!	!	!	!	!LO:N:vis=8%3	!
(<16c##X/LL	4.BB\	4.aa 4.b 4.a/	4.ryy	.	16%3gg#\	.
16d#X/	.	.	.	.	.	.
16B/	.	.	.	.	.	.
!	!	!	!	!	!LO:N:vis=8%3	!
16A/	.	.	.	.	16%3ff#\)	.
16F#/	.	.	.	.	.	.
16D#X/JJ)	.	.	.	.	.	.
*	*	*v	*v	*	*	*
=40	=40	=40	=40	=40	=40
4.E 4.EE\	4.ryy	16aaLL 16cc# 16a/	.	(4ee\	.
.	.	16bb#X/	.	.	.
.	.	16ccc#/	.	.	.
.	.	16aa/	.	.	.
.	.	16ee/	.	16cc#\LL	.
.	.	16cc#/JJ	.	16a\JJ)	.
!	!	!	!	!LO:TUP:b	!
!	!	!	!	!LO:N:vis=8%3	!
16c#LL 16E/	4.E\	4.a/	.	(<16%3e/	.
16B#X/	.	.	.	.	.
16c#/	.	.	.	.	.
!	!	!	!	!LO:N:vis=8%3	!
16A/	.	.	.	16%3c#/)	.
16E/	.	.	.	.	.
16C#/JJ	.	.	.	.	.
*v	*v	*	*	*	*
!!LO:PB:g=original
=41	=41	=41	=41	=41
*M4/4	*M4/4	*	*M4/4	*
*met(c)	*met(c)	*	*met(c)	*
*^	*	*	*	*
*	*	*Xbrackettup	*	*	*
!	!	!LO:TUP:b	!	!	!
!	!	!LO:TUP:b:problem:klamra łukowa	!	!	!
2A 2C# 2EE/	2EE\	12r	.	(4B#X/	.
.	.	12b#X/L	.	.	.
.	.	12cc#/	.	.	.
.	.	12a/	.	4c#/	.
.	.	12e/	.	.	.
.	.	12c#/J	.	.	.
*Xbrackettup	*	*	*	*	*
!LO:TUP:a:problem:klamra łukowa	!	!	!	!	!
12r	2EE\	2a 2d#X 2A/	.	4g#/	.
12C##X/L	.	.	.	.	.
12D#X/	.	.	.	.	.
12BB/	.	.	.	4f#/)	.
12AA#X/	.	.	.	.	.
12AAn/J	.	.	.	.	.
=42	=42	=42	=42	=42	=42
!	!	!LO:TUP:a:problem:klamra łukowa	!	!	!
!	!	!LO:TUP:a:r=4	!	!	!
4ryy	2EE\	12r<	.	(4e/	.
.	.	12G#</L	.	.	.
.	.	12A</	.	.	.
!	!	!LO:TUP:a:problem:klamra łukowa	!	!	!
4G# 4D\	.	12A#X</	.	4d/	.
.	.	12B</	.	.	.
.	.	12B#X</J	.	.	.
!LO:TUP:a:problem:klamra łukowa	!	!	!	!	!
12r	2EE#X\	2c#< 2G#< 2C#<;/	.	2c#;/)	.
12GG#/L	.	.	.	.	.
12AA/	.	.	.	.	.
12BB/	.	.	.	.	.
12BB#X/	.	.	.	.	.
12C#;/J	.	.	.	.	.
=43	=43	=43	=43	=43	=43
*	*	*^	*	*	*
!	!	!LO:TX:a:t=Allegro moderato	!	!	!	!
8ryy	8r	4c#/	8r	.	1r	.
!	!	!	!	!LO:DY:a:t=f.	!	!
8A 8F#/	8C# 8FF#\	.	8ryy	f	.	.
8r	8r	4d/	4ryy	.	.	.
8B 8F#/	8D 8FF#\	.	.	.	.	.
2ryy	8r	4a/	8r	.	.	.
.	8D#X 8FF#\	.	8c# 8B\	.	.	.
.	8r	[4g#/	8r	.	.	.
.	8E#X 8FF#\	.	8c# 8B\	.	.	.
=44	=44	=44	=44	=44	=44	=44
8C#/L	2FF#\	8g#/L]	2ryy	.	1r	.
8B/	.	8c#/	.	.	.	.
8A/	.	8d#X/	.	.	.	.
8G#/J	.	8e#X/J	.	.	.	.
4F#/	8r	4f#/	8r	.	.	.
.	8C# 8FF#\	.	8c# 8A\	.	.	.
4ryy	4C# 4EE#X\	4g#/	8r	.	.	.
.	.	.	8c# 8G#\	.	.	.
=45	=45	=45	=45	=45	=45	=45
*	*	*	*	*^	*	*
!	!	!	!	!LO:HP:a	!	!	!
4C#/	[2FF#\	4g#/	8r	<	.	1r	.
.	.	.	8e#X 8c#\	.	.	.	.
4F#/	.	4a#X/	8r	.	.	.	.
!	!	!	!	!	!LO:HP:a:t=cres.	!	!
.	.	.	8en 8c#\	.	<	.	.
4G#/	2FF#\]	4dd/	8r	.	.	.	.
.	.	.	8f# 8e\	[	.	.	.
4A#X/	.	4cc#/	8r	.	.	.	.
.	.	.	8f# 8e\	.	.	.	.
*	*	*	*	*v	*v	*	*
!!LO:LB:g=original
=46	=46	=46	=46	=46	=46	=46
(4B/	1BB	8cc#/L	8r	.	1r	.
.	.	8f#/	8e\	.	.	.
4F#/	.	8g#/	8r	.	.	.
.	.	8a#X/J	8e\	.	.	.
4B/)	.	4b/	8r	.	.	.
.	.	.	8f# 8d\	.	.	.
4r	.	4cc#/	8r	.	.	.
.	.	.	8f# 8d\	.	.	.
=47	=47	=47	=47	=47	=47	=47
4r	2AA\	4dd/	8r	.	4r	.
.	.	.	8f# 8d\	.	.	.
(2B/	.	2dd/	8r	.	([4ccc#^\	.
.	.	.	8f# 8d\	.	.	.
.	4GG#\	.	8r	.	8ccc#\L]	.
.	.	.	8f# 8d\	.	8bb\	.
4c#/)	4C#\	4cc#/	8r	.	8aa\	.
.	.	.	8b 8e#X 8c#\	.	8ee#X\J)	.
*v	*v	*	*	*	*	*
*	*v	*v	*	*	*
=48	=48	=48	=48	=48
4FF#\	8b/L	.	(8gg#\L	>
!	!LO:TX:b:t=cis	!	!	!
.	8a 8f# 8c#/	.	8ff#\	.
4BB\	8g#/	.	8een\	.
.	8ddJ 8f# 8d/	.	8dd\J	.
2EE#X\	8r	.	4.cc#\	.
.	8c#L 8G#/	.	.	.
.	8g# 8c# 8G#/	.	.	.
.	8cc#J 8g# 8c#/	.	8b\)	]
=49	=49	=49	=49	=49
*^	*^	*	*	*
4r	2FF#\	4a/	8r	.	8a\L	<
.	.	.	8c# 8A\	.	(8ee#X\J	.
[2F#/	.	2a/	8r	.	[4gg#\	[
.	.	.	8c# 8A\	.	.	.
.	4DD#X\	.	8r	.	8gg#\L]	.
.	.	.	8c# 8A\	.	8ff#\	.
4F#/]	4EE\	4g#/	8r	.	8een\	.
.	.	.	8B#X 8G#\	.	8b#X\J)	.
=50	=50	=50	=50	=50	=50	=50
4E/	4AA\	4r	8r	.	(8dd#X\L	>
.	.	.	8c# 8A\	.	8cc#\	.
4E#X/	4EE#X\	4g#/	8r	.	8b\	.
.	.	.	8c# 8A\	.	8g#\J)	]
4F#/	4FF#\	8g#/L	8r	.	(>8a/	.
.	.	8f#/	8c# 8A\	.	4cc#^>/	.
4ryy	4GG#\	8e#X/	8r	.	.	.
.	.	8c#/J	8B\	.	8e#X/)	.
*	*	*v	*v	*	*	*
!!LO:LB:g=original
=51	=51	=51	=51	=51	=51
8r	4AA\	4c#/	.	(8e#X/L	.
8A 8F#/	.	.	.	8f#/	.
8r	4BBB#X\	4d#X/	.	8g#/	.
8A 8F#/	.	.	.	8a/J)	.
8r	2CC#\	8e#X/L	.	4.g#/	.
4.G# 4.E#X 4.C#/	.	8c#/	.	.	.
.	.	8g#/	.	.	.
.	.	8cc#/J	.	8r	.
=52	=52	=52	=52	=52	=52
4A/	1FF#	8cc#/L	.	(4cc#\	.
.	.	8a/	.	.	.
4C#/	.	8g#/	.	4dd\	.
.	.	8f#/J	.	.	.
4B/	.	8e#X/L	.	4aa\	.
.	.	8d#X/	.	.	.
4C#/	.	8e#/	.	8..gg#\L)	.
.	.	8c#/J	.	.	.
.	.	.	.	(32cc#\Jkk	.
=53	=53	=53	=53	=53	=53
8c#/L	1C# 1FF#	8r	.	[1ccc#)	.
8B/	.	8cc#L 8c#/	.	.	.
8A/	.	8dd#X 8d#X/	.	.	.
8G#/J	.	8ee#XJ 8e#X/	.	.	.
8A/L	.	4ff# 4f#/	.	.	.
8F#/	.	.	.	.	.
8E#X/	.	4gg# 4g#/	.	.	.
8C#/J	.	.	.	.	.
=54	=54	=54	=54	=54	=54
*^	*	*	*	*	*
4F#/	8r	1C# 1FF#	4gg# 4g#/	.	4ccc#\]	.
.	8C#/	.	.	.	.	.
4f#/	8r	.	4aa#X 4a#X/	.	(4ccc#\	.
.	8A# F#\	.	.	.	.	.
4e#X/	8r	.	4ddd 4dd/	.	[2fff#\)	.
.	8B G# F#\	.	.	.	.	.
4en/	8r	.	4ccc# 4cc#/	.	.	.
.	8A# F#\	.	.	.	.	.
*v	*v	*	*	*	*	*
=55	=55	=55	=55	=55	=55
*	*	*^	*	*	*
8r	1F# 1BB	8ccc#L 8cc#/	2ryy	.	4fff#\]	.
8e/L	.	8ff# 8f#/	.	.	.	.
8d/	.	8gg# 8g#/	.	.	(8eee\L	.
8c#/J	.	8aa#XJ 8a#X/	.	.	8fff#\J	.
8d/L	.	4bb 4b/	8r	.	(8ddd\L	.
8B/	.	.	8ff# 8dd\	.	8fff#\J)	.
8A#X/	.	4ccc# 4cc#/	8r	.	4ccc#\)	.
8F#/J	.	.	8ff#\	.	.	.
*v	*v	*	*	*	*	*
!!LO:LB:g=original
=56	=56	=56	=56	=56	=56
4B 4BB\	2ddd 2dd/	8r	.	(4bb\	.
.	.	8ff#\	.	.	.
4GG#\	.	8r	.	4ddd\	.
.	.	8dd 8b 8f# 8d\	.	.	.
4C#\	2ryy	8r	.	8ccc#\L	.
.	.	8cc# 8b 8e#X 8c#\	.	8gg#\	.
4EE#X\	.	8r	.	8aa\	.
.	.	8ccc# 8bb 8gg# 8cc#\	.	8bb\J)	.
*	*v	*v	*	*	*
=57	=57	=57	=57	=57
4FF#\	8r	.	(8aa\L	.
.	8ccc# 8aa 8ff# 8cc#\	.	8dd#X\	.
4GG#\	8r	.	8ee#X\	.
.	8cc# 8b 8e#X 8c#/	.	8gg#\J)	.
2AA\	8r	.	(4cc#\	.
.	(8aL 8f# 8c# 8A/	.	.	.
.	8cc# 8a 8f# 8c#/	.	8ff#\)	.
.	8ff#J 8cc# 8a 8f#/)	.	8r	.
=58	=58	=58	=58	=58
*	*^	*	*	*
2GGn\	8r	2ryy	.	8r	.
.	8bL 8gn 8d 8B/	.	.	(8bb\	<
.	8dd 8b 8g 8d/	.	.	4ddd\	.
.	8ggnyJ 8b 8g/	.	.	.	.
2E 2EE\	8r	4ryy	.	8cccn\L	.
.	8ccnL 8g 8cn/	.	.	8ff#\	.
.	8gg/	4gg 4g^\	.	8ggn\	.
.	8eeJ 8cc/	.	.	8bb\J)	[[
=59	=59	=59	=59	=59	=59
2E 2EE\	8r	4ryy	.	(8gg##X\L	.
.	8a#XL 8f# 8c# 8A#X/	.	.	8aa#X\J	.
!	!	!	!	!	!LO:HP:t=cres.
.	8ff#^/	4ff# 4f#\	.	[4fff#\)	<
.	8cc#J 8a#/	.	.	.	.
2D 2DD\	8r	4ryy	.	8fff#\L]	.
.	8bL 8f# 8d 8B/	.	.	8ddd\J	f
.	8ff#/	4ff# 4f#^\	.	4bb\	.
.	8ddJ 8b/	.	.	.	.
*	*v	*v	*	*	*
=60	=60	=60	=60	=60
!	!	!	!LO:TX:b:i:t=appasſio	!
2AA#X 2AAA#X\	8r	.	(8bb#X\L	.
.	8f#L 8e 8c#/	.	8ccc#\J	.
.	8cc# 8f# 8e/	.	[4fff#\	.
.	8eeJ 8f# 8e'/	.	.	.
2BB 2BBB\	8r	.	8fff#\L])	.
.	8f#L 8d 8B/	.	(8ddd\J	.
.	8b 8f# 8d/	.	4fff#\	.
.	8ddJ 8b 8f#/	.	.	.
!!LO:PB:g=original
=61	=61	=61	=61	=61
*^	*	*	*	*
2ryy	1GG# 1GGG#	8r	.	8fff#\L)	.
.	.	(8B<L 8D</	.	(8ddd\J	.
.	.	8d< 8F#</	.	[2.bbb\)	ff
.	.	8f#J 8B/	.	.	.
(8BL 8D/	.	8bL 8d/	.	.	.
8d 8F#/	.	8dd 8f#/	.	.	.
8f# 8B/	.	8ff# 8b/	.	.	.
8bJ 8d/)	.	8bbJ 8dd/)	.	.	.
*v	*v	*	*	*	*
=62	=62	=62	=62	=62
[1C# [1CC#	4r	.	8bbb\L]	.
.	.	.	(8bbb\	.
!	!LO:TX:b:t=pesante	!	!	!
.	4g# 4e#X 4B^>/	.	8aaa\	.
!	!	!LO:DY:a:t=forte	!	!
.	.	f	8ddd#X\J	.
.	4a 4f# 4A^>/	.	8eee#X\L	.
.	.	.	8fff#\	.
.	4b 4f# 4B^>/	.	8dddn\	.
.	.	.	8bb\J	.
=63	=63	=63	=63	=63
1C#] 1CC#]	4b#X 4a 4f# 4B#X/	.	8aa\L)	.
.	.	<	(8dd#X\	.
.	4cc# 4bn 4e#X 4c#/	.	8ee#X\	.
.	.	.	8gg#\J	.
.	4dd 4a 4f# 4d/	.	8ff#\L	.
.	.	.	8ddn\	.
.	4dd#X 4a 4f# 4d#X/	.	8cc#\	.
.	.	.	8a\J)	.
=64	=64	=64	=64	=64
[1C# [1CC#	4ee 4cc# 4a 4e/	.	(8cc#/L	.
.	.	.	8a/	.
.	8ee#XL 8g# 8e#X/	[	8g#/	.
.	8ff#J 8a 8f#/	.	8d#X/J	.
.	4gg# 4b 4g#/	.	8e#X/L	.
.	.	.	8g#/	.
.	8aaL 8cc# 8a/	.	8f#/	.
.	8bbJ 8dd 8b/	.	8dn/J)	.
=65	=65	=65	=65	=65
*^	*	*	*	*
*	*^	*	*	*	*
4r>	1C#] 1CC#]	4ryy	4ccc# 4aa 4ff# 4cc#/	.	(8c#/L	.
.	.	.	.	.	8A/J	.
!	!	!	!	!	!	!LO:DY:a
4a> 4f#>\	.	2.c#>\	4ddd#X 4dd#X/	.	2.c#/)	sf
4b> 4g#>\	.	.	4eee#X 4ee#X/	.	.	ff
4cc#> 4a>\	.	.	4fff# 4ff#/	.	.	.
*	*v	*v	*	*	*	*
!!LO:LB:g=original
=66	=66	=66	=66	=66	=66
*	*	*^	*	*	*
4ryy	1C# 1CC#	4ccc# 4aa 4ff# 4dd/	4ryy	.	(8c#/L	.
.	.	.	.	.	8A/J	.
!	!	!	!	!	!LO:N:vis=2	!LO:DY:a
2.c#/	.	4ddd#X 4dd#X/	4b 4f#\	.	2.c#/)	ff
.	.	4eee#X 4ee#X/	4b 4g#\	.	.	.
.	.	4fff# 4ff#/	4cc# 4a\	.	.	.
=67	=67	=67	=67	=67	=67	=67
2ryy	[>1C# [1CC#	4rB	4r	.	8c#/L	.
.	.	.	.	.	8G#/J	.
!	!	!	!	!	!LO:N:vis=2	!
.	.	4dddn 4ff# 4ddn/	4b 4g#\	.	[2.c#/	.
2G#/	.	4bb 4dd 4b/	4g#\	.	.	.
.	.	4gg# 4b 4g#/	4d\	.	.	.
*	*	*v	*v	*	*	*
=68	=68	=68	=68	=68	=68
*^	*	*	*	*	*
4d/	2.G#/	1C#] 1CC#]	4ff# 4b 4f#/	.	4c#/]	.
4B/	.	.	4dd 4f# 4d/	.	2.c#tt/	.
4c# 4C#/	.	.	4cc# 4e#X 4c#/	.	.	.
4C#/	4ryy	.	4ee#X 4cc# 4b 4e#X/	.	.	.
.	.	.	.	.	8qB#X/	.
*v	*v	*	*	*	*	*
=69	=69	=69	=69	=69	=69
!	!	!	!	!LO:TX:t=4:problem:w tt. 69-70 po czwórce falista linia	!
4C#/	2FF#\	8r	.	4c#/	<
.	.	4ff# 4a 4f#/	.	.	.
4c#/	.	.	.	4d/	.
.	.	4ee#X 4a 4e#X/	.	.	.
4C#/	2FF#\	.	.	4a/	.
.	.	4dd#X 4g# 4d#X/	.	.	.
4c#/	.	.	.	[4g#/	[[
.	.	[8ee# [>8g# [8e#/	.	.	.
=70	=70	=70	=70	=70	=70
4C#/	1FF#	8ee#] 8g#] 8e#/]	.	8g#/L]	.
.	.	4ff# 4a 4f#/	.	8c#/	.
4c#/	.	.	.	8d#X/	.
.	.	8ccc# 8bb 8gg# 8cc#/	.	8e#X/J	.
4C#/	.	8r	.	4f#/	.
.	.	8cc# 8a 8c#/	.	.	.
4c#/	.	8r	.	4f##X/	.
.	.	8ccc# 8aa 8cc#/	.	.	.
!!LO:LB:g=original
=71	=71	=71	=71	=71	=71
2ryy	4EE\	8r	.	4g#/	>
.	.	8gg# 8cc# 8g#/	.	.	.
.	4DD#X\	8r	.	4a/	.
.	.	8ff# 8a 8f#/	.	.	] <
4ryy	2GG#\	8r	.	4ee/	.
.	.	8ee 8cc# 8g# 8e/	.	.	.
4G#/	.	8r	.	[>4dd#X/	.
.	.	[8b#X [8f# [8B#X/	.	.	[
=72	=72	=72	=72	=72	=72
4GG#/	2CC#\	8b#] 8f#] 8B#/]	.	8dd#/L]	.
.	.	4cc# 4e 4c#/	.	(8g#/	.
4G#/	.	.	.	8a#X/	.
.	.	8gg# 8ff# 8b#X 8g#/	.	8b#X/J	.
4GG#/	2CC#\	8r	.	4cc#/	>
.	.	8g# 8e 8c# 8G#/	.	.	.
4G#/	.	8r	.	4dd#X/)	.
.	.	8gg# 8ff# 8b#X 8g#/	.	.	.
=73	=73	=73	=73	=73	=73
4r	2C#\	8r	.	8r	]
.	.	8gg# 8ee#X 8cc# 8g#/	.	(8ee#X\L	<
4c#/	.	8r	.	8ff#\	.
.	.	8ccc# 8bb 8ee# 8cc#/	.	8gg#\J	.
4C#/	2FF#\	8r	.	4.aa\	[
.	.	8cc# 8a 8f# 8c#/	.	.	>
4c#/	.	8r	.	.	.
!	!	!	!	!	!LO:HP:t=poco diminuendo
.	.	8ccc# 8aa 8ff# 8cc#/	.	[8gg#\)	]] >
*v	*v	*	*	*	*
=74	=74	=74	=74	=74
2D 2DD\	8r	.	8gg#\L]	.
!	!LO:TX:i:t=ritardando	!	!	!
.	8dddL 8ff# 8dd\	.	(8ee#X\	.
.	8aa 8ff# 8dd\	.	8ff#\	.
.	8ff#J 8dd 8a\	.	[8gg#\J)	.
2GG#\	8r	.	8gg#\L]	.
.	8ff#L 8a\	.	(8aa\	.
.	8ee#X 8g#\	.	8bb\	.
.	8dd#XJ 8f#\	.	8bb#X\J	.
=75	=75	=75	=75	=75
*M6/8	*M6/8	*	*M6/8	*
!	!	!	!LO:TX:a:i:t=Piu lento.	!
(2.C# [2.CC#\	8cc# 8e#X\	.	[2.ccc#\)	.
.	(8ee#XL 8g#/	.	.	.
.	8dd#XJ 8f#/	.	.	.
!	!	!LO:DY:a:t=mf.	!	!
.	8b#XL 8d#X/	mf	.	.
.	8cc# 8e#X/	.	.	.
.	8aJ 8c#/	.	.	.
!!LO:LB:g=original
=76	=76	=76	=76	=76
8E 8CC#\])	8g# 8B#X/)	.	16ccc#\LL]	.
.	.	.	(16ddd#X\	.
(8f#L 8c#\	(8dd#XL 8a/	.	16eee#X\	.
.	.	.	16fff#\	.
8d#XJ 8A\	8cc#J 8f#/	.	16ddd#\	.
.	.	.	16ccc#\JJ	.
8c#L 8F#\	8aL 8d#X/	.	16aa\LL	.
.	.	.	16dd#X\	.
8A 8D#X\	8f# 8c#/	.	16ee#X\	.
.	.	.	16ff#\	.
8G#J 8GG#\)	8g#J 8B#/)	.	16dd#\)	.
.	.	.	16g#\JJ	.
=77	=77	=77	=77	=77
[4.C#\	(>8e#XL 8c#/	.	[2.cc#\	.
.	8e# 8G#</	.	.	.
.	8d#XJ 8F#</	.	.	.
4.C#] 4.CC#\	8B#XL 8D#X</	.	.	.
.	8c# 8E#X</	.	.	.
.	8A<J 8F#</)	.	.	.
=78	=78	=78	=78	=78
8GG# 8CC#\	8G#< 8BB#X</	.	(16cc#\LL]	.
.	.	.	16dd#X\	.
(8f#L 8c#\	(>8dd#XL 8a/	.	16ee#X\	.
.	.	.	16ff#\	.
8d#XJ 8A\	8cc#J 8f#/	.	16dd#\	.
.	.	.	16cc#\JJ	.
8c#L 8F#\	8aL 8d#X/	.	16a/LL	.
.	.	.	16d#X/	.
8A 8D#X\	8f# 8c#/	.	16e#X/	.
.	.	.	16f#/	.
8G#J 8GG#\)	8g#J 8B#X/)	.	16d#/	.
.	.	.	16G#/JJ	.
=79	=79	=79	=79	=79
*	*^	*	*	*
2.C# 2.CC#\	8r	4.ryy	.	4.c#/)	.
.	(8e#XL 8G#/	.	.	.	.
.	8c#<J 8E#X</)	.	.	.	.
.	4.aa 4.cc# 4.a 4.f#/	4.f# 4d#\	.	(16d/LL	.
.	.	.	.	16d#X/	.
.	.	.	.	16e#X/	.
.	.	.	.	16f#/	.
.	.	.	.	16d#/	.
.	.	.	.	16G#/JJ)	.
=80	=80	=80	=80	=80	=80
2.C# 2.CC#\	8r	4.ryy	.	4.c#/	.
.	8e#XL 8G#/	.	.	.	.
.	8c#<J 8E#X</	.	.	.	.
.	4.aa 4.cc# 4.a/	4.f# 4d#\	.	(16d/LL	.
.	.	.	.	16d#X/	.
.	.	.	.	16e#X/	.
.	.	.	.	16f#/	.
.	.	.	.	16d#/	.
.	.	.	.	16G#/JJ)	.
!!LO:PB:g=original
=81	=81	=81	=81	=81	=81
!	!	!	!	!	!LO:HP:a
[<2.C# [2.CC#\	8r	4.ryy	.	(16c#/LL	>
.	.	.	.	16d#X/	.
.	8e#XL 8G#/	.	.	16e#X/	.
.	.	.	.	16G#/)	.
.	8c#<J 8E#X</	.	.	(16c#/	.
.	.	.	.	16d#/JJ	.
!	!	!	!	!LO:TX:a:t=poco rallentando	!
.	[>4.gg# [>4.cc# [<4.g#/	[>4.e# [<4.c#\	.	16e#/LL	.
.	.	.	.	16G#/	.
.	.	.	.	(16c#/)	.
.	.	.	.	16d#/	.
.	.	.	.	16e#/	.
.	.	.	.	16G#/JJ)	]]
=82	=82	=82	=82	=82	=82
2.C#] 2.CC#\]	4.gg#] 4.cc#] 4.g#/]	4.e#] 4.c#\]	.	(16B#X/LL	.
!	!	!	!	!	!LO:HP:t=poco diminuendo
.	.	.	.	16c#/	>
.	.	.	.	16e#X/	.
.	.	.	.	16d#X/	.
.	.	.	.	16e#/	.
.	.	.	.	16f#/JJ	.
.	8cc#/L	4.ryy	.	16g#/LL	.
.	.	.	.	16d##X/	.
.	8g#/	.	.	16e#/	.
.	.	.	.	16g#/	.
.	8e#X/J	.	.	16a#X/	.
.	.	.	.	[>16b#X/JJ)	.
=83	=83	=83	=83	=83	=83
*^	*	*	*	*	*
!	!	!LO:TX:a:t=Tempo Iº	!	!	!LO:TX:a:t=Tempo 1º	!
2.A 2.E/	2.AA\	8en/L	2.c#\	.	(16b#\LL]	.
.	.	.	.	.	[16cc#\	.
!	!	!	!	!	!	!LO:DY:t=pp.
.	.	(<8cc#/	.	.	16cc#\]	pp
.	.	.	.	.	16dd\	.
.	.	8b/J	.	.	16dd#X\	.
.	.	.	.	.	16ee\JJ)	.
.	.	8g#/L	.	.	(16gg#\LL	.
.	.	.	.	.	16aa\	.
.	.	8qb/	.	.	.	.
.	.	8a/	.	.	16ccc#\	.
.	.	.	.	.	16ddd\	.
.	.	8e/J)	.	.	16eee\	.
.	.	.	.	.	16eee#X\JJ)	.
*	*	*v	*v	*	*	*
=84	=84	=84	=84	=84	=84
8F#/L	2.D 2.AA\	8e/	.	(16fff#\LL	<
.	.	.	.	16ff#\	.
8d/	.	[4f#/	.	16gg#\	.
.	.	.	.	16aa#X\	.
8c#/J	.	.	.	16bb\	.
.	.	.	.	16ccc#\JJ	.
8A#X/L	.	8f#/L]	.	16ddd\LL	[
.	.	.	.	16ccc#\	.
(8qc#/	.	.	.	.	.
8B/)	.	8g#/	.	16bb\	.
.	.	.	.	16aan\	>
8F#/J	.	8a/J	.	16gg#\	.
.	.	.	.	16ff#\JJ)	.
=85	=85	=85	=85	=85	=85
*	*	*^	*	*	*
[4D/	2.AA\	4b/	8r	.	16ee#X\LL	.
.	.	.	.	.	(16ff#\	.
.	.	.	8f# 8d\	.	16cc#\	.
.	.	.	.	.	16dd\	]
8D/L]	.	4cc#/	4r	.	16ee#\	.
.	.	.	.	.	16ff#\JJ	.
8F#/J	.	.	.	.	16gg#\LL	.
.	.	.	.	.	16aa#X\	.
[4B/	.	4dd/	8r	.	16bb\	.
.	.	.	.	.	16ee#X\	.
.	.	.	8f# 8d\	.	16ff#\	.
.	.	.	.	.	16bb\JJ)	.
*	*	*v	*v	*	*	*
!!LO:LB:g=original
=86	=86	=86	=86	=86	=86
*	*^	*	*	*	*
8B/]	8r	2.EE\	8ee#X\	.	(16ddd\LL	.
.	.	.	.	.	16ccc#\	.
(8G#/L	[4D\	.	[4ff#\	.	16bb\	.
.	.	.	.	.	16ccc#\	.
8A/J	.	.	.	.	16bb\	.
.	.	.	.	.	16aa\JJ	.
8A#X/L	4.G# 4.D\]	.	4ff#\]	.	16gg#\LL	.
.	.	.	.	.	16aa\	.
8B/	.	.	.	.	16gg#\	.
.	.	.	.	.	16ff#\	.
8B#X/J)	.	.	8een\	.	16ee\	.
.	.	.	.	.	16dd\JJ)	.
=87	=87	=87	=87	=87	=87	=87
16c# 16E/	4r	<4.AA\	16ee\	.	(8cc#\L	.
16ryy	.	.	&(<(>16D#X</LL	.	.	.
8ryy	.	.	16E</	.	8ccc#\	.
.	.	.	16F#</	.	.	.
2ryy	[<8E\	.	16F##X</	.	8bb\J	.
.	.	.	16G#</JJ)	.	.	.
.	N(8E/L]	(<4.C#\	(<16A</LL&)	.	8gg#\L	.
.	.	.	16c#</	.	.	.
.	.	.	.	.	(8qbb/	.
.	8A/	.	16d#X/	.	8aa\)	.
.	.	.	16e/	.	.	.
.	[8e/J	.	16a/	.	[8ee\J)	.
.	.	.	16cc#/JJN)	.	.	.
*	*v	*v	*	*	*	*
=88	=88	=88	=88	=88	=88
8e/L]	2.D\)	(16cc#/LL	.	8ee\]	.
.	.	16f#/	.	.	.
(<8d/	.	16g#/	.	([4ff#\	.
.	.	16a#X/	.	.	.
8c#/J	.	16b/	.	.	.
.	.	16cc#/JJ)	.	.	.
8A#X/L	.	(16dd/LL	.	8ff#\L]	.
.	.	16cc#/	.	.	.
(8qc#/	.	.	.	.	.
8B/)	.	16b/	.	8gg#\	.
.	.	16an/	.	.	.
8F#/J)	.	16g#/	.	8aa\J)	.
.	.	16f#/JJ)	.	.	.
=89	=89	=89	=89	=89	=89
4B/	4.BB\	(16e#X/LL	.	(4bb~\	.
.	.	16f#/	.	.	.
.	.	16c#/	.	.	.
.	.	16d/	.	.	.
[8F#/	.	16e#/	.	4ccc#~\	.
.	.	16f#/JJ)	.	.	.
8F#/L]	4.AA\	(16g#/LL	.	.	.
.	.	16a#X/	.	.	.
8d/	.	16b/	.	4ddd~\)	.
.	.	16en/	.	.	.
8c#/J	.	16f#/	.	.	.
.	.	16b/JJ)	.	.	.
=90	=90	=90	=90	=90	=90
*^	*	*^	*	*	*
4.B/	4.ryy	4.GG#\	(16dd/LL	4.ryy	.	(8eee#X\	.
.	.	.	16cc#/	.	.	.	.
.	.	.	16b/	.	.	[4fff#^\	.
.	.	.	16cc#/	.	.	.	.
.	.	.	16b/	.	.	.	.
.	.	.	16an/JJ)	.	.	.	.
4B/	4r	4.EE\	(<16g#/LL	4.d\	.	4fff#\]	.
.	.	.	16a/	.	.	.	.
.	.	.	16b/	.	.	.	.
.	.	.	16f#/	.	.	.	.
!LO:N:vis=2	!	!	!	!	!	!	!
8r	8ryy	.	16e/	.	.	8eeen\)	.
.	.	.	16ee/JJ)	.	.	.	.
*v	*v	*	*	*	*	*	*
*v	*v	*	*	*	*	*
*	*v	*v	*	*	*
!!LO:LB:g=original
=91	=91	=91	=91	=91
4.C# 4.CC#\	16r	.	(8eee\L	.
.	(<16E</LL	.	.	.
.	16A</	.	8bbb\	.
.	16c#</	.	.	.
.	16d#X</	.	8aaa\J	.
.	16e</JJ)	.	.	.
4.BB 4.BBB\	4.dd 4.a 4.dn/	.	8fff##X\L	.
.	.	.	8ggg#\	.
.	.	.	8fff#X\J)	.
=92	=92	=92	=92	=92
*^	*	*	*	*
*8ba	*	*	*	*	*
4.EE 4.EEE\	16r	4.dd 4.g# 4.d/	.	(4eee\	.
*X8ba	*	*	*	*	*
.	(<16AA#</LL	.	.	.	.
.	16BB</	.	.	.	.
.	16E</	.	.	.	.
.	16G#</	.	.	8bb\	.
.	16B<JJ/)	.	.	.	.
!LO:SIC:v:s=4.AA\	!	!	!	!	!
4.AA#\	(<8A<L/	4.cc# 4.a 4.c#/	.	[4.ccc#\)	.
.	8E</	.	.	.	.
.	8C#<J/)	.	.	.	.
*v	*v	*	*	*	*
=93	=93	=93	=93	=93
4.E#X 4.EE#X\	16r	.	8ccc#\L]	.
.	(16A/LL	.	.	.
.	16B#X/	.	(8eee\	.
.	16c#/	.	.	.
.	16g#/	.	8ddd\J	.
.	16b/JJ)	.	.	.
4.F# 4.FF#\	4.aa 4.cc# 4.a/	.	8bb#X\L	.
.	.	.	8ccc#\	.
.	.	.	8aa\J)	.
=94	=94	=94	=94	=94
4.BB 4.BBB\	16r	.	(4gg#\	.
.	(<16A</LL	.	.	.
.	16B</	.	.	.
.	16d/	.	.	.
.	16d#X/	.	8ff#\	.
.	16b/JJ)	.	.	.
4.C# 4.CC#\	8r	.	8ee\)	.
.	(<8e<L 8c#< 8A</	.	4ccc#\	.
.	8aJ 8e 8c#/)	.	.	.
=95	=95	=95	=95	=95
4D 4DD\	8r	.	(8bb\L	<
.	8B<L 8A</	.	8aa\	.
8D#X 8DD#X\	8aJ 8f# 8B< 8A</	.	8ff#\J	.
4.E 4.EE\	8r	.	8dd#X\L	.
.	8eL 8c# 8A< 8E</	.	8ee\	.
.	8aJ 8e 8c#/	.	8ccc#\J)	[[
!!LO:LB:g=original
=96	=96	=96	=96	=96
2.F# 2.FF#\	8r	.	(8bb~\L	.
.	8c#L 8A/	.	8aa~\	.
.	8e/J	.	8gg#~\J	.
.	(8g#L 8e/	.	8bb~\L	.
.	8a 8f#/	.	8aa~\	.
.	8bJ 8g#/)	.	[<8ee#X~\J)	.
=97	=97	=97	=97	=97
4.F# 4.FF#\	4.cc# 4.a 4.c#/	.	16ee#\LL]	.
.	.	.	(16ee#X\	.
.	.	.	16gg#\	<
.	.	.	16ee#\	.
.	.	.	16ff#\	.
.	.	.	16gg#\JJ	.
4.BB 4.BBB\	4.aa 4.dd#X 4.a/	.	16aa\LL	.
.	.	.	16aa#X\	.
.	.	.	16bb\	.
.	.	.	16ddd#X\	.
.	.	.	16ggg#\	.
.	.	.	16fff#\JJ)	[[
=98	=98	=98	=98	=98
*^	*	*	*	*
*	*8ba	*	*	*	*
4r	2.EE 2.EEE\	8r	.	[4.fff#\	.
*	*X8ba	*	*	*	*
.	.	8dddL 8ff# 8dd/	.	.	.
8r	.	8aaJ 8a/	.	.	f
4.f#> 4.B>\	.	4.ddd 4.aa 4.dd/	.	16fff#\LL]	.
.	.	.	.	(16eee#X\	.
.	.	.	.	16fff#\	.
.	.	.	.	16aa#X\	.
.	.	.	.	16bb\	.
.	.	.	.	16ccc#\JJ	.
*v	*v	*	*	*	*
=99	=99	=99	=99	=99
*^	*	*	*	*
4r	2.E 2.EE\	8r	.	4.ddd\)	.
.	.	8dddL 8aa 8ffn 8dd/	.	.	.
8r	.	8aaJ 8a/	.	.	.
4.fn> 4.B>\	.	4.ddd 4.aa 4.ff 4.dd/	.	(16fffn\LL	.
.	.	.	.	16eee\	.
.	.	.	.	16fff\	.
.	.	.	.	16aa#X\	.
.	.	.	.	16bb\	.
.	.	.	.	16ccc#\JJ)	.
=100	=100	=100	=100	=100	=100
8r	2.E 2.EE\	8r	.	(16ddd\LL	>
.	.	.	.	16eee\	.
(8ffn>L 8b>\	.	(8dddL 8aa/	.	16fffn\	.
.	.	.	.	16aa#X\	.
8dd>J 8a>\	.	8bbJ 8ff#/	.	16bb\	.
.	.	.	.	16ccc#\JJ	.
8b>L 8fn>\	.	8aaL 8dd/	.	16ddd\LL)	.
.	.	.	.	(16cc#\	.
8b> 8a> 8d>\	.	8ff#/	.	16dd\	.
.	.	.	.	16ee\	.
8a> 8f>J 8B>\)	.	8dd/J)	.	16ffn\	.
.	.	.	.	16aa#\JJ)	]]
!!LO:PB:g=original
=101	=101	=101	=101	=101	=101
8r	2.E 2.EE\	8r	.	[4.ccc#\	.
(8dd>L 8a>\	.	(>8ccc#L 8ff#/	.	.	.
8cc#>J 8f#>\	.	8aaJ 8dd/	.	.	.
8a>L 8d>\	.	8ff#L 8cc#/	.	8ccc#\L]	.
8a> 8f#> 8B>\	.	[>8dd/)	.	(8ccc#\	.
8g#>J 8e> 8E\)	.	8dd/J]	.	8bb\J	.
=102	=102	=102	=102	=102	=102
4.A/	2.AA\	8cc# 8a/	.	8aa\)	.
.	.	(8ccc#L 8ggn (8ee\	.	8r	.
.	.	8bbJ 8dd\)	.	8r	.
[4.A/	.	8gg#XL [8cc#\	.	(>[4.A/	.
.	.	8qbb/	.	.	.
.	.	8aa 8cc#\]	.	.	.
.	.	8eeJ 8gn\)	.	.	.
=103	=103	=103	=103	=103	=103
*	*	*^	*	*	*
4.A/]	[2.AA\	(8eeL 8gn/	4.ryy	.	4A/]	.
.	.	8ee#X 8g/)	.	.	.	.
.	.	8ff#J 8dd 8f#/	.	.	8d/	.
4.A/	.	4.dd 4.a/	8f#\L	.	8a/L	.
.	.	.	8e\	.	8g#/	.
.	.	.	8d\J	.	8f#/J)	.
*	*	*v	*v	*	*	*
=104	=104	=104	=104	=104	=104
4.B/	2.AA\]	8r	.	4e/	.
.	.	(8g#L 8e 8d/	.	.	.
.	.	8ddJ 8g# 8e 8d/)	.	[8B/	.
4.E/	.	(4.dd 4.g# (4.d/	.	16B/LL]	.
.	.	.	.	(16B/	.
.	.	.	.	16d/	.
.	.	.	.	16c#/	.
.	.	.	.	16A#X/	.
.	.	.	.	16B/JJ	.
=105	=105	=105	=105	=105	=105
4.A/	4.AA\	8cc# 8g# 8c#/))	.	4e/)	.
.	.	(8cc#L 8gn 8e/	.	.	.
.	.	8b 8g 8d/	.	8r	.
4r	4.AA\	8g#X [8c#/	.	(4.aa\	.
.	.	(<8qb/	.	.	.
.	.	8a 8c#/])	.	.	.
8r	.	8eJ 8Gn/)	.	.	.
!!LO:LB:g=original
=106	=106	=106	=106	=106	=106
*	*	*^	*	*	*
4.AA/	2.AAA\	8r	4.ryy	.	4aa\)	.
.	.	(8d<L 8A< 8F#</	.	.	.	.
.	.	8f#<J 8d< 8A</	.	.	(8aa\	.
4.AA/	.	8aL 8f#/	4.A\	.	8aaa\L	.
.	.	8e/	.	.	8ggg#\	.
.	.	8d/J)	.	.	8fff#\J)	.
*v	*v	*	*	*	*	*
*	*v	*v	*	*	*
=107	=107	=107	=107	=107
4.AA 4.AAA\	8r	.	(4eee\	.
.	8eL 8d 8G#/	.	.	.
.	8b/J	.	[8bb\)	.
4.fn> 4.B>\	4.aa 4.dd 4.a/	.	(16bb\LL]	.
.	.	.	16bb\	.
.	.	.	16ddd\	.
.	.	.	16ccc#\	.
.	.	.	16aa#X\	.
.	.	.	16bb\JJ)	.
=108	=108	=108	=108	=108
4.AA 4.AAA\	8r	.	[4.eee\	.
.	8eL 8c# 8A/	.	.	.
.	8cc#/J	.	.	.
4.fn> 4.B>\	4.aa 4.dd 4.a/	.	16eee\LL]	.
.	.	.	(16bb\	.
.	.	.	16ddd\	.
.	.	.	16ccc#\	.
.	.	.	16aa#X\	.
.	.	.	16bb\JJ	.
=109	=109	=109	=109	=109
*^	*	*	*	*
8e> 8A>\	2.AA 2.AAA\	8aa 8cc#/	.	[4.eee\)	.
(8ee>L 8a>\	.	(8ccc#L 8ff#/	.	.	.
8cc#> 8f#>\	.	8aa 8ee/	.	.	.
8a> 8e>\	.	8ff# 8cc#/	.	4eee\]	.
8f#> 8c#>\	.	8ee 8a/	.	.	.
8e>J 8A>\)	.	8cc#J 8f#/)	.	(8ccc#\	.
=110	=110	=110	=110	=110	=110
8r	2.AA 2.AAA\	8r	.	[4.aaa\	.
(>8e>L 8A>\	.	(8cc#L 8f#/	.	.	.
8c# 8F#\	.	8a 8d/	.	.	.
8A 8E\	.	8f# 8c#/	.	4aaa\])	.
8F# 8C#\	.	8e 8A/	.	.	.
8EJ 8AA\)	.	8c#J 8A/)	.	(>8eee\	.
*v	*v	*	*	*	*
!!LO:LB:g=original
=111	=111	=111	=111	=111
*	*	*	*8va	*
!	!	!	!LO:TX:t=P:problem:brak zakończenia łuku	!
4.C# 4.CC#\	4.e< 4.c#< 4.G#< 4.E</	.	[<2.eeee\)	.
4.BB 4.BBB\	4.ee 4.dd 4.g# 4.e/	.	.	.
=112	=112	=112	=112	=112
*^	*	*	*	*
!	!	!LO:S:problem:note-level slur	!	!	!
2.e 2.c# 2.A 2.E/	2.AA 2.AAA\	(>2.ccc# &(>2.aa &&(<2.ee &&&(<2.cc#/	.	2.eeee\_<	.
*v	*v	*	*	*	*
=113	=113	=113	=113	=113
4.A 4.E 4.AA 4.AAA\	4.cc#) 4.a&) 4.e&&) 4.c#;/&&&)	.	4.eeee;\]	.
*	*	*	*X8va	*
4r	4r	.	4r	.
8r	8r	.	8r	.
==	==	==	==	==
*-	*-	*-	*-	*-
!!!system-decoration: (<s1>{s2,s3})
!!!RDF**kern: > = above
!!!RDF**kern: < = below
!!!RDF**kern: N = linked
!!!ENC: Andrzej Gręziak
!!!END: 2021-11-12
!!!ENC: Marta Lawrence
!!!END: 2021-11-14
